X:1
T:Dumb, Dumb, Dumb
M:2/2
L:1/8
K:Bb
 z4 z2 z B| B3/2 A/2 GA B3c/2-B/2| A/2A/2 FF F F3 F| G2 GA B2 AG| d2 d2 d2 cc|\
 BB BB d2 cB| cc cc c3B/2-c/2| d2 cBA-G Ac| B2 G2 G3 z|
